X:1
T:Title
%%score { ( 1 3 ) | 2 }
L:1/8
M:4/4
K:Db
V:1 treble nm="Grand Piano"
V:3 treble 
V:2 bass 
V:1
 z4 z2[Q:1/4=100] [FA]>[EG] | F>_F =F>[EG] [FA]>[_F=G] [=FA]>[DF] | %2
 D->[DA] B>[Gc] [Fd]2 [Gc]>[GB] | [FA]>[FA] [_F=G]>[=FA] B>A _G>F | [CE]6 [CA]>[EG] | %5
 F>_F =F>[EG] [FA]>[_F=G] [=FA]>[DF] | D->[DA] B>[Gc] [Fd]2 [Fd]>[Fd] | %7
 [Ee]>[Ee] [Fd]>[Fd] [Ec]2 [DB]2 |[M:3/4] [A,CA]6 |[M:1/4] [CGA]>[CGB] |[M:4/4] [FA]4 z4 | %11
 [FA]4 z4 | [EG]>[EG] [EG]>[EG] e>e e>e | F2 z2 [FA]2 z2 | A4 d2 z2 |[M:9/8] z2 e- e z z z3 | %16
[M:4/4] z4 z2 c2[Q:1/4=98][Q:1/4=96][Q:1/4=94][Q:1/4=92][Q:1/4=90][Q:1/4=88][Q:1/4=85][Q:1/4=83][Q:1/4=81][Q:1/4=79][Q:1/4=77] | %17
[M:3/4] [Fd]6 |] %18
V:2
 z4 z2 [D,A,]>[D,A,] | [D,A,D]>[D,=G,D] [D,A,D]>[D,A,] [D,D]>[D,D] [D,D]>[D,A,] | %2
 [B,,G,]>[D,F,] [G,D]>[E,A,] [D,A,]2 [D,B,]>[D,C] | %3
 [D,D]>[D,D] [D,D]>[D,D] [G,DG]>[F,D] [E,A,C]>[D,A,D] | [A,,A,]6 [A,,A,]>[C,A,] | %5
 [D,A,D]>[D,=G,D] [D,A,D]>[D,A,] [D,D]>[D,D] [D,D]>[D,A,] | %6
 [B,,G,]>[D,F,] [G,D]>[E,A,] [D,A,]2 [D,A,]>[D,A,] | [C,A,]>[C,A,] [D,A,]>[D,A,] [E,A,]2 [E,G,]2 | %8
[M:3/4] A,,6 |[M:1/4] A,>A, |[M:4/4] D,>D, D,>D, [D,A,]2 [D,A,]>[D,A,] | %11
 [A,,A,]>A,, A,,>A,, [A,,A,]2 [A,,A,]>[A,,A,] | %12
 [A,,A,]>[A,,A,] [A,,A,]>[A,,A,][K:treble] [A,CG]>[A,CG] [A,CG]>[A,CG] | %13
 [D,D]>[C,F,] [D,G,]>[D,B,] [D,A,]2 [D,A,D]>[D,A,] | %14
 [D,D]>[D,D] [D,D]>[D,D] [D,A,]>[D,A,] [D,A,]>[D,A,] | %15
[M:9/8][K:treble] [A,CG]2 [A,CA]- [A,CA]/[A,C]/ [DA]2- [DA][K:bass][F,D]>[F,D] | %16
[M:4/4] [G,B,]>[G,D] [G,D]>[G,D] [A,D]2 [A,,A,]2 |[M:3/4] [D,A,]6 |] %18
V:3
 x8 | x8 | G2 z2 z4 | x8 | x8 | x8 | G2 z2 z4 | x8 |[M:3/4] x6 |[M:1/4] x2 | %10
[M:4/4] D>D D>C [DF]2 [FA]>[GB] | z z/ A,/ A,>A, [EG]2 [CE]>[DF] | x8 | %13
 d->[Dd-] [Ed-]>[Gd] z z/ D/ F>[EG] | F>F F>F F>F [Fd]>[Fd] |[M:9/8] .e3 z/ A/ f2- f[Ad]>[Ad] | %16
[M:4/4] [Ge]>[Bd] [Ac]>[GB] [FA]2 E>G |[M:3/4] x6 |] %18

